images/header/logo.svg

<svg width="154" height="22" viewBox="0 0 154 22" fill="none" xmlns="http://www.w3.org/2000/svg">
<path fill-rule="evenodd" clip-rule="evenodd" d="M50.972 21.384C52.4119 21.384 53.6719 21.146 54.7519 20.67C55.832 20.194 56.674 19.504 57.278 18.6C57.882 17.696 58.1839 16.612 58.1839 15.348C58.1839 14.484 58.042 13.74 57.7579 13.116C57.4739 12.492 57.0639 11.946 56.528 11.478C55.992 11.01 55.3479 10.584 54.5959 10.2C53.8439 9.81597 53.0039 9.42797 52.076 9.03597C51.644 8.85997 51.2479 8.69397 50.888 8.53797C50.528 8.38197 50.2199 8.21797 49.964 8.04597C49.708 7.87397 49.5099 7.66997 49.3699 7.43397C49.2299 7.19797 49.16 6.91197 49.16 6.57597C49.16 6.16797 49.2659 5.79797 49.478 5.46597C49.6899 5.13397 49.9939 4.86797 50.3899 4.66797C50.7859 4.46797 51.2679 4.36797 51.8359 4.36797C52.34 4.36797 52.8379 4.43997 53.3299 4.58397C53.8219 4.72797 54.2859 4.91797 54.722 5.15397C55.158 5.38997 55.548 5.65597 55.8919 5.95197L57.5119 2.90397C57.0799 2.53597 56.5519 2.19597 55.9279 1.88397C55.304 1.57197 54.632 1.31997 53.9119 1.12797C53.1919 0.935966 52.472 0.839966 51.7519 0.839966C50.792 0.839966 49.922 0.999966 49.1419 1.31997C48.3619 1.63997 47.6899 2.07197 47.1259 2.61597C46.562 3.15997 46.1279 3.77997 45.8239 4.47597C45.52 5.17197 45.368 5.89997 45.368 6.65997C45.368 7.29997 45.478 7.87797 45.6979 8.39397C45.9179 8.90997 46.216 9.37197 46.5919 9.77997C46.9679 10.188 47.3979 10.546 47.882 10.854C48.3659 11.162 48.8759 11.436 49.4119 11.676C50.132 11.988 50.7739 12.274 51.3379 12.534C51.902 12.794 52.3779 13.058 52.7659 13.326C53.1539 13.594 53.4479 13.894 53.6479 14.226C53.8479 14.558 53.9479 14.96 53.9479 15.432C53.9479 15.952 53.8239 16.386 53.576 16.734C53.3279 17.082 52.9899 17.344 52.562 17.52C52.1339 17.696 51.6399 17.784 51.0799 17.784C50.4799 17.784 49.9139 17.698 49.382 17.526C48.8499 17.354 48.3559 17.138 47.8999 16.878C47.444 16.618 47.0319 16.344 46.6639 16.056C46.2959 15.768 45.9799 15.508 45.716 15.276L43.7239 18.492C43.9799 18.74 44.3279 19.028 44.7679 19.356C45.208 19.684 45.7339 20.002 46.346 20.31C46.958 20.618 47.652 20.874 48.4279 21.078C49.2039 21.282 50.0519 21.384 50.972 21.384ZM6.13595 21C7.54395 21 8.85395 20.75 10.066 20.25C11.278 19.75 12.338 19.05 13.246 18.15C14.154 17.25 14.86 16.202 15.364 15.006C15.868 13.81 16.12 12.512 16.12 11.112C16.12 9.71997 15.866 8.42397 15.358 7.22397C14.85 6.02397 14.142 4.97197 13.234 4.06797C12.326 3.16397 11.268 2.45997 10.06 1.95597C8.85195 1.45197 7.54395 1.19997 6.13595 1.19997H0.699951V21H6.13595ZM5.70395 17.52H4.58795V4.67997H5.70395C6.59995 4.67997 7.42795 4.83997 8.18795 5.15997C8.94795 5.47997 9.60795 5.92997 10.168 6.50997C10.728 7.08997 11.164 7.76997 11.476 8.54997C11.788 9.32997 11.944 10.18 11.944 11.1C11.944 12.028 11.788 12.882 11.476 13.662C11.164 14.442 10.728 15.12 10.168 15.696C9.60795 16.272 8.94795 16.72 8.18795 17.04C7.42795 17.36 6.59995 17.52 5.70395 17.52ZM36.06 17.592V21H25.044V1.19997H36.06V4.60797H28.932V9.37197H35.7719V12.78H28.932V17.592H36.06ZM67.168 1.19997H71.056V21H67.168V1.19997ZM89.7479 21.384C90.9159 21.384 92.0439 21.186 93.132 20.79C94.2199 20.394 95.1959 19.834 96.06 19.11C96.924 18.386 97.6059 17.526 98.1059 16.53C98.6059 15.534 98.8559 14.432 98.8559 13.224V10.224H89.7V13.236H94.896V13.536C94.896 14.152 94.7599 14.72 94.4879 15.24C94.216 15.76 93.8479 16.212 93.3839 16.596C92.9199 16.98 92.3899 17.278 91.7939 17.49C91.1979 17.702 90.5799 17.808 89.9399 17.808C89.1399 17.808 88.394 17.644 87.702 17.316C87.0099 16.988 86.4059 16.52 85.8899 15.912C85.3739 15.304 84.9719 14.58 84.6839 13.74C84.396 12.9 84.2519 11.964 84.2519 10.932C84.2519 9.98797 84.38 9.11397 84.6359 8.30997C84.8919 7.50597 85.268 6.80397 85.7639 6.20397C86.2599 5.60397 86.8699 5.13797 87.5939 4.80597C88.3179 4.47397 89.1519 4.30797 90.0959 4.30797C91.0559 4.30797 92.0299 4.48597 93.0179 4.84197C94.006 5.19797 94.8479 5.69997 95.5439 6.34797L97.368 3.33597C96.7199 2.79997 95.992 2.34597 95.1839 1.97397C94.3759 1.60197 93.534 1.31997 92.658 1.12797C91.782 0.935966 90.9119 0.839966 90.048 0.839966C88.52 0.839966 87.1399 1.10997 85.908 1.64997C84.6759 2.18997 83.6239 2.93397 82.7519 3.88197C81.88 4.82997 81.212 5.92197 80.7479 7.15797C80.284 8.39397 80.0519 9.70797 80.0519 11.1C80.0519 12.556 80.2999 13.908 80.796 15.156C81.2919 16.404 81.9799 17.494 82.8599 18.426C83.74 19.358 84.768 20.084 85.9439 20.604C87.1199 21.124 88.3879 21.384 89.7479 21.384ZM111.668 7.67997V21H107.78V1.19997H111.668L120.2 14.52V1.19997H124.088V21H120.2L111.668 7.67997ZM143.032 21.384C144.416 21.384 145.712 21.12 146.92 20.592C148.128 20.064 149.188 19.33 150.1 18.39C151.012 17.45 151.726 16.358 152.242 15.114C152.758 13.87 153.016 12.536 153.016 11.112C153.016 9.68797 152.758 8.35397 152.242 7.10997C151.726 5.86597 151.012 4.77397 150.1 3.83397C149.188 2.89397 148.128 2.15997 146.92 1.63197C145.712 1.10397 144.416 0.839966 143.032 0.839966C141.648 0.839966 140.352 1.10397 139.144 1.63197C137.936 2.15997 136.876 2.89397 135.964 3.83397C135.052 4.77397 134.338 5.86597 133.822 7.10997C133.306 8.35397 133.048 9.68797 133.048 11.112C133.048 12.536 133.306 13.87 133.822 15.114C134.338 16.358 135.052 17.45 135.964 18.39C136.876 19.33 137.936 20.064 139.144 20.592C140.352 21.12 141.648 21.384 143.032 21.384ZM140.71 17.16C141.418 17.48 142.188 17.64 143.02 17.64C143.868 17.64 144.644 17.48 145.348 17.16C146.052 16.84 146.664 16.388 147.184 15.804C147.704 15.22 148.108 14.53 148.396 13.734C148.684 12.938 148.828 12.064 148.828 11.112C148.828 10.16 148.684 9.28597 148.396 8.48997C148.108 7.69397 147.704 7.00397 147.184 6.41997C146.664 5.83597 146.052 5.38397 145.348 5.06397C144.644 4.74397 143.868 4.58397 143.02 4.58397C142.188 4.58397 141.418 4.74397 140.71 5.06397C140.002 5.38397 139.388 5.83597 138.868 6.41997C138.348 7.00397 137.946 7.69397 137.662 8.48997C137.378 9.28597 137.236 10.16 137.236 11.112C137.236 12.064 137.378 12.938 137.662 13.734C137.946 14.53 138.348 15.22 138.868 15.804C139.388 16.388 140.002 16.84 140.71 17.16Z" fill="#333136"/>
</svg>

<svg width="154" height="22" fill="none" xmlns="http://www.w3.org/2000/svg"><path fill-rule="evenodd" clip-rule="evenodd" d="M50.972 21.384c1.44 0 2.7-.238 3.78-.714 1.08-.476 1.922-1.166 2.526-2.07.604-.904.906-1.988.906-3.252 0-.864-.142-1.608-.426-2.232a4.794 4.794 0 0 0-1.23-1.638 9.471 9.471 0 0 0-1.932-1.278 38.542 38.542 0 0 0-2.52-1.164 58.554 58.554 0 0 1-1.188-.498 5.784 5.784 0 0 1-.924-.492 1.92 1.92 0 0 1-.594-.612c-.14-.236-.21-.522-.21-.858 0-.408.106-.778.318-1.11.212-.332.516-.598.912-.798.396-.2.878-.3 1.446-.3.504 0 1.002.072 1.494.216.492.144.956.334 1.392.57.436.236.826.502 1.17.798l1.62-3.048a7.84 7.84 0 0 0-1.584-1.02 10.599 10.599 0 0 0-2.016-.756 8.351 8.351 0 0 0-2.16-.288c-.96 0-1.83.16-2.61.48-.78.32-1.452.752-2.016 1.296a5.782 5.782 0 0 0-1.302 1.86 5.4 5.4 0 0 0-.456 2.184c0 .64.11 1.218.33 1.734.22.516.518.978.894 1.386.376.408.806.766 1.29 1.074.484.308.994.582 1.53.822.72.312 1.362.598 1.926.858a9.59 9.59 0 0 1 1.428.792c.388.268.682.568.882.9.2.332.3.734.3 1.206 0 .52-.124.954-.372 1.302-.248.348-.586.61-1.014.786-.428.176-.922.264-1.482.264-.6 0-1.166-.086-1.698-.258a7.868 7.868 0 0 1-1.482-.648c-.456-.26-.868-.534-1.236-.822a21.826 21.826 0 0 1-.948-.78l-1.992 3.216a10.88 10.88 0 0 0 2.622 1.818 10.65 10.65 0 0 0 2.082.768 9.99 9.99 0 0 0 2.544.306ZM6.136 21c1.408 0 2.718-.25 3.93-.75a9.75 9.75 0 0 0 3.18-2.1 9.666 9.666 0 0 0 2.118-3.144c.504-1.196.756-2.494.756-3.894 0-1.392-.254-2.688-.762-3.888a9.797 9.797 0 0 0-5.298-5.268C8.852 1.452 7.544 1.2 6.136 1.2H.7V21h5.436Zm-.432-3.48H4.588V4.68h1.116c.896 0 1.724.16 2.484.48.76.32 1.42.77 1.98 1.35.56.58.996 1.26 1.308 2.04.312.78.468 1.63.468 2.55 0 .928-.156 1.782-.468 2.562a6.171 6.171 0 0 1-1.308 2.034 5.95 5.95 0 0 1-1.98 1.344c-.76.32-1.588.48-2.484.48Zm30.356.072V21H25.044V1.2H36.06v3.408h-7.128v4.764h6.84v3.408h-6.84v4.812h7.128ZM67.168 1.2h3.888V21h-3.888V1.2Zm22.58 20.184a9.82 9.82 0 0 0 3.384-.594 9.67 9.67 0 0 0 2.928-1.68 8.042 8.042 0 0 0 2.046-2.58c.5-.996.75-2.098.75-3.306v-3H89.7v3.012h5.196v.3a3.62 3.62 0 0 1-.408 1.704c-.272.52-.64.972-1.104 1.356a5.207 5.207 0 0 1-1.59.894 5.491 5.491 0 0 1-1.854.318c-.8 0-1.546-.164-2.238-.492a5.382 5.382 0 0 1-1.812-1.404c-.516-.608-.918-1.332-1.206-2.172-.288-.84-.432-1.776-.432-2.808 0-.944.128-1.818.384-2.622a6.236 6.236 0 0 1 1.128-2.106 5.097 5.097 0 0 1 1.83-1.398c.724-.332 1.558-.498 2.502-.498.96 0 1.934.178 2.922.534.988.356 1.83.858 2.526 1.506l1.824-3.012a9.907 9.907 0 0 0-2.184-1.362 12.337 12.337 0 0 0-2.526-.846 12.162 12.162 0 0 0-2.61-.288c-1.528 0-2.908.27-4.14.81a9.307 9.307 0 0 0-3.156 2.232 9.961 9.961 0 0 0-2.004 3.276 11.125 11.125 0 0 0-.696 3.942c0 1.456.248 2.808.744 4.056a10.191 10.191 0 0 0 2.064 3.27 9.464 9.464 0 0 0 3.084 2.178c1.176.52 2.444.78 3.804.78Zm21.92-13.704V21h-3.888V1.2h3.888l8.532 13.32V1.2h3.888V21H120.2l-8.532-13.32Zm31.364 13.704a9.6 9.6 0 0 0 3.888-.792 9.927 9.927 0 0 0 3.18-2.202 10.351 10.351 0 0 0 2.916-7.278 10.351 10.351 0 0 0-2.916-7.278 9.927 9.927 0 0 0-3.18-2.202 9.6 9.6 0 0 0-3.888-.792 9.6 9.6 0 0 0-3.888.792 9.927 9.927 0 0 0-3.18 2.202 10.351 10.351 0 0 0-2.916 7.278 10.351 10.351 0 0 0 2.916 7.278 9.927 9.927 0 0 0 3.18 2.202 9.6 9.6 0 0 0 3.888.792Zm-2.322-4.224c.708.32 1.478.48 2.31.48.848 0 1.624-.16 2.328-.48a5.459 5.459 0 0 0 1.836-1.356 6.296 6.296 0 0 0 1.212-2.07c.288-.796.432-1.67.432-2.622s-.144-1.826-.432-2.622a6.296 6.296 0 0 0-1.212-2.07 5.459 5.459 0 0 0-1.836-1.356c-.704-.32-1.48-.48-2.328-.48-.832 0-1.602.16-2.31.48a5.442 5.442 0 0 0-1.842 1.356 6.214 6.214 0 0 0-1.206 2.07c-.284.796-.426 1.67-.426 2.622s.142 1.826.426 2.622a6.214 6.214 0 0 0 1.206 2.07 5.442 5.442 0 0 0 1.842 1.356Z" fill="#333136"/></svg>
